X:381
T:Weavers' March
R: hp 32 march
S:James Aird (Glasgow) 1782
B:English Choice, Nick Barber, pub mally.com
M:2/2
L:1/8
Q:1/4=140
K:D
|:FG|"D"A2AG FGA2|"G"B2B2 "A"A3A|
Bcd2 cde2|"G"dedc B2B2|
"D"A2AG FGA2|"G"B2B2 "A"A3A|
Bcd2 cde2|e3c "D"d2:|
|:de|"D"f2gf "A"e2fe|"D"dfed dcBA|
"A"Bcd2 c2d2|g2f2 e4|
"D"A2AG FGA2|"G"B2B2 "A"A3A|
Bcd2 cde2|e3c "D"d2:|]

